src/components/Icon/assets/wing.svg

<svg width="24" height="24" viewBox="0 0 24 24" fill="none" xmlns="http://www.w3.org/2000/svg">
<path fill-rule="evenodd" clip-rule="evenodd" d="M18.2197 8H12.2197H11.2197V10H12.2197H18.2197C18.2197 11.103 17.3227 12 16.2197 12H10.2197H9.2197V14H10.2197H15.2197C15.2197 15.103 14.3227 16 13.2197 16H9.1277C8.3357 16 7.5677 16.232 6.9087 16.672L5.4207 17.664C5.1267 17.86 4.7907 17.974 4.4407 17.996L4.6457 16.969C4.8777 15.809 5.0347 14.633 5.1877 13.496L5.3207 12.521C5.8737 8.56 8.5817 6 12.2197 6H20.2197C20.2197 7.103 19.3227 8 18.2197 8V8ZM12.2197 4C7.52469 4 4.03869 7.236 3.33969 12.244L3.20569 13.23C3.05669 14.336 2.90369 15.479 2.68469 16.577L1.99969 20H4.31069C5.10369 20 5.8707 19.768 6.5297 19.328L8.01869 18.336C8.34769 18.116 8.73169 18 9.12769 18H13.2197C15.4257 18 17.2197 16.206 17.2197 14V13.858C18.9397 13.411 20.2197 11.858 20.2197 10V9.443C21.4097 8.75 22.2197 7.474 22.2197 6V4H12.2197Z" fill="#65676A"/>
</svg>

<svg xmlns="http://www.w3.org/2000/svg" width="24" height="24" viewBox="0 0 24 24">
    <path fill="#65676A" fill-rule="evenodd" d="M18.22 8h-7v2h7c0 1.103-.897 2-2 2h-7v2h6c0 1.103-.897 2-2 2H9.128c-.792 0-1.56.232-2.22.672l-1.487.992c-.294.196-.63.31-.98.332l.205-1.027c.232-1.16.389-2.336.542-3.473l.133-.975C5.874 8.56 8.58 6 12.22 6h8c0 1.103-.897 2-2 2zm-6-4c-4.695 0-8.181 3.236-8.88 8.244l-.134.986c-.15 1.106-.302 2.249-.521 3.347L2 20h2.31c.794 0 1.56-.232 2.22-.672l1.489-.992c.329-.22.713-.336 1.109-.336h4.092c2.206 0 4-1.794 4-4v-.142c1.72-.447 3-2 3-3.858v-.557c1.19-.693 2-1.969 2-3.443V4h-10z"/>
</svg>
